X:1
T:The Quarry Cross
L:1/4
M:2/2
I:linebreak $
K:Emin
V:1 treble 
V:1
|:"Em" G E E E/D/ | B, E E3/2 G/ |"D" F D D3/2 E/ | F G A/B/B/A/ |"Em" G E E E/D/ | B, E E3/2 F/ | %6
"C" G B"D" A F |"Em" E2 E B/A/ ::$"Em" B e e3/2 d/ | e B B A | B e e d |"C" e2"D" e3/2 f/ | %12
"Em" g e"D" f g/f/ |"C" e B"Bm" B3/2 A/ |"Am" G E"Bm" E F |"C" G A"D" B B/A/ :| %16
